X: 312
T: Shuigua xibaoto
%%abc-version 2.0
%%abcx-abcm2ps-target-version 5.9.1 (29 Sep 2008)
%%abc-creator hum2abc beta
%%abcx-conversion-date 2013/10/02 07:52:30
%%abc-edited-by Helmut Schaffrath
%%humdrum-veritas 2093282298
%%humdrum-veritas-data 2675724102
%%continueall 1
%%barnumbers 0
L: 1/16
M: 2/4
K: Bb
c2 c d f g f d [I:setbarnb 1]| 
c8 | 
d e d cB4 | 
c2 c d c B G B | 
F8 | 
f2 f2 d f d c | 
d f f GB4 | 
c2 c d c B G B | 
F2 F B D F D F | 
G B G FG4 | 
c2> d2 f3 c | 
B2 G2 G B G F | 
D2 F2 B2 B G | 
F G F DC4 |]  



